X: 10362
M: 6/8
L: 1/8
K: G
uc |\
|: ug |\
fef def | gab (e2f) | geb afd | (g3 f2).d |\
[1 eca fdg | (Bg)B A2G | GBg DFA |[G3B,3] [G2B,2] :|
[2 ec'e dbd | cac BgB | Ace DFA | [G3B,3] "^D.C."[G2B,2] |]


